X:1
T:Title
%%score { 1 | 2 }
L:1/8
M:4/4
K:Ab
V:1 treble nm="Grand Piano"
V:2 bass 
V:1
 z4 z2[Q:1/4=100] [CE]2 | [Ec]2 [DB]>[CA] [Ec]2 [DB]>[CA] | [CE]2 [DF]2 [CE]2 [EA]2 | %3
 G2 G>A B2 E2 |[M:3/4] [CEA]6 |[M:1/4] [CE]2 |[M:4/4] [Ec]2 [DB]>[CA] [Ec]2 [DB]>[CA] | %7
 [CE]2 [DF]2 [CE]2 [CEA]2 | [B,EG]2 [EB]>[EB] [=DF]2 [DB]2 |[M:3/4] E6 |[M:1/4] E>E | %11
[M:4/4] [Ge]2 [Ge]>[Fd] d<c B2 | [CA]2 [CA]2 [CE]2 E>E | [Ge]2 [GB]>[GB] [Ac]2 [Bd]2 | c6 c>c | %15
 [Fd]2 [Fd]>[Fd] [DF]2 [FA]>[FB] | [Ec]2 [Ec]2 [CE]2 c>c | [Ee]2 [Fd]>[Fd] [Ec]2 [DB]2 | %18
[M:3/4] [CA]6 |] %19
V:2
 z4 z2 [A,,A,]2 | [A,,A,]2 [A,,A,]>[A,,A,] [A,,A,]2 [A,,A,]>[A,,A,] | %2
 [A,,A,]2 [A,,A,]2 [A,,A,]2 [C,A,]2 | [E,B,E]2 [E,B,E]>[E,CE] [E,DE]2 [E,D]2 |[M:3/4] A,,6 | %5
[M:1/4] [A,,A,]2 |[M:4/4] [A,,A,]2 [A,,A,]>[A,,A,] [A,,A,]2 [A,,A,]>[A,,A,] | %7
 [A,,A,]2 [A,,A,]2 [A,,A,]2 A,,2 | B,,2 [B,,G,]>[B,,G,] [B,,A,]2 [B,,A,]2 |[M:3/4] [E,G,]6 | %10
[M:1/4] [E,G,]>[E,G,] |[M:4/4] [E,B,]2 [E,B,]>[E,G,] [E,A,E]<[E,A,E] [E,G,D]2 | %12
 [A,,A,]2 [A,,A,]2 [A,,A,]2 [A,C]>[A,C] | [E,B,]2 [E,E]>[E,E] [E,E]2 [E,E]2 | %14
 [A,EA]6 [A,_G]>[A,G] | [D,A,]2 [D,A,]>[D,A,] [D,A,]2 [D,A,]>[D,A,] | %16
 [A,,A,]2 [A,,A,]2 [A,,A,]2 [A,E]>[A,E] | [C,A,]2 [D,A,]>[D,A,] [E,A,]2 [E,G,]2 | %18
[M:3/4] [A,,A,]6 |] %19

